X:39
T:T024B- Rose Tree (in full bearing)
Q:1/4=30
L:1/4
M:2/4
K:D
f/4e/4|d/B/ A/F/|A3/4B/4A/ c/|d f/4e/4d/4e/4|\
f/e/ e/4(g/4f/4e/4)|d/B/ A/F/|A3/4B/4A/ c/|d(f/4e/4)(d/4e/4)|\
f/d/d/::g/|f/e/f/g/|f/4g/4a/ g/f/|e/b/b/a/|b/e/ e/f/4e/4|\
d/B/ A/F/|A3/4B/4A/ c/|df/4e/4d/4e/4|f/d/d/:|]

